X:1
T:Title
%%score { 1 | 2 }
L:1/8
M:3/4
K:Db
V:1 treble nm="Grand Piano"
V:2 bass 
V:1
 z2 z[Q:1/4=94] [FA] [FA]>[GB] | [FA]3 F F>G | F3 D [CE]>[DF] | [CE]3 [Ec] [Ec]>[DB] | %4
[M:3/8] [A,CA]3 | A[Fd]>[Fe] |[M:3/4] [Fd]3 [FA] [GB]>[GB] | [FA]3 F A>B | A3 F [CE]>[CF] | %9
[M:2/4] D4 |[M:1/4] [Fd]>[Fd] |[M:3/4] [Fd]3 [Fe] [Gd]>[GB] | [FA]4 [FA]>[GB] | [FA]3 F A>F | %14
[M:3/8] [CE]3 | DF>D |[M:3/4] F3 [FA] [FA]>[DF] | [FA]3 [FA] B>d | d3 F [CE]>[CF] |[M:3/8] D3 |] %20
V:2
 z2 z [D,D] [D,D]>[D,D] | [D,D]3 [D,A,D] [D,A,D]>[D,A,D] | [D,A,D]3 [D,F,] [A,,A,]>[A,,A,] | %3
 [A,,A,]3 [A,,A,] [E,=G,]>[E,G,] |[M:3/8] A,,3 | A,[D,A,]>[D,A,] | %6
[M:3/4] [D,A,]3 [D,D] [G,D]>[G,D] | [D,D]3 [D,A,D] [D,F,D]>[D,F,D] | %8
 [D,F,D]3 [D,A,D] [A,,G,]>[A,,G,] |[M:2/4] [D,F,]4 |[M:1/4] [D,A,]>[D,A,] | %11
[M:3/4] [D,A,]3 [D,_C] [G,B,]>[G,D] | [D,D]4 [D,D]>[D,D] | [D,D]3 [D,A,D] [F,A,D]>[D,A,D] | %14
[M:3/8] [A,,A,]3 | [D,F,][D,A,D]>[D,F,] |[M:3/4] [D,A,D]3 [D,D] [D,D]>[D,A,] | %17
 [D,D]3 [D,D][K:treble] [G,DG]>[G,B,G] | [A,F]3[K:bass] [A,D] [A,,G,]>[A,,G,] |[M:3/8] [D,F,]3 |] %20

